src/assets/gavel.svg

<svg width="41" height="28" viewBox="0 0 41 28" fill="none" xmlns="http://www.w3.org/2000/svg">
<path opacity="0.4" fill-rule="evenodd" clip-rule="evenodd" d="M10.0252 24.1963C10.5423 24.7917 10.9029 25.4823 11.0765 26.2017C11.1718 26.5996 10.9746 26.9988 10.623 27.1761L10.6244 27.1787C8.52599 28.2412 5.80614 27.5583 4.26522 25.784C3.74817 25.1886 3.38751 24.498 3.21393 23.7786C3.11869 23.3807 3.31589 22.9816 3.66743 22.8042C5.77586 21.7138 8.50991 22.4514 10.0252 24.1963ZM20.1803 16.9806C20.1816 18.3298 20.1835 19.9899 20.1803 16.9806V16.9806ZM9.7737 0.506507C10.9102 2.54247 10.3651 5.23398 8.70984 6.84409C8.14173 7.39671 7.47371 7.79685 6.77006 8.01012C6.34905 8.13765 5.90676 7.93033 5.72735 7.54115C5.3791 6.91724 5.17435 6.19525 5.13442 5.4367C5.01168 3.10243 6.47894 0.719836 8.73093 0.0375887C9.15201 -0.0900013 9.59435 0.117325 9.7737 0.506507ZM8.59335 2.66931C8.58127 2.44199 8.54689 2.2216 8.49166 2.01192C7.21807 2.8102 6.54797 4.51038 6.92858 5.95528C8.01303 5.27562 8.66078 3.93671 8.59335 2.66931ZM3.46271 6.62824C3.09395 6.42349 2.62013 6.50998 2.35094 6.85087C0.891535 8.70006 1.05608 11.4817 2.49962 13.3156C2.97239 13.9162 3.56017 14.39 4.20886 14.6981C4.57762 14.9029 5.05143 14.8164 5.32062 14.4755C7.26539 12.0115 6.30009 7.97603 3.46271 6.62824ZM3.75718 9.08954C4.55796 10.0877 4.80236 11.5419 4.30377 12.7153C3.13943 11.7529 2.70201 9.98799 3.28705 8.61102C3.4561 8.75079 3.61399 8.91108 3.75718 9.08954ZM1.27814 14.7278C0.866104 14.7139 0.489193 14.9927 0.395419 15.4083C-0.124376 17.7109 1.23183 20.1703 3.32986 21.2115C4.02421 21.5561 4.77194 21.7325 5.50458 21.7282C5.91661 21.7421 6.29352 21.4633 6.38729 21.0477C7.08082 17.9756 4.45896 14.7094 1.27814 14.7278ZM2.68174 16.8162C3.82178 17.3877 4.65832 18.6004 4.72368 19.8778C3.27864 19.4899 2.13688 18.0799 2.05998 16.5782C2.2691 16.6344 2.4777 16.714 2.68174 16.8162ZM5.87858 23.9821C5.64884 23.9809 5.42393 24.0031 5.20799 24.0476C5.94054 25.371 7.60937 26.1518 9.08246 25.8482C8.45811 24.7205 7.15524 23.9891 5.87858 23.9821Z" fill="#2ED2A1"/>
<path opacity="0.4" fill-rule="evenodd" clip-rule="evenodd" d="M30.3388 24.1963C29.8218 24.7917 29.4611 25.4823 29.2876 26.2017C29.1923 26.5996 29.3895 26.9988 29.7411 27.1761L29.7397 27.1787C31.8381 28.2412 34.5579 27.5583 36.0989 25.784C36.6159 25.1886 36.9766 24.498 37.1501 23.7786C37.2454 23.3807 37.0482 22.9816 36.6966 22.8042C34.5882 21.7138 31.8542 22.4514 30.3388 24.1963ZM20.1837 16.9806C20.1824 18.3298 20.1806 19.9899 20.1837 16.9806V16.9806ZM30.5904 0.506507C29.4539 2.54247 29.999 5.23398 31.6542 6.84409C32.2223 7.39671 32.8904 7.79685 33.594 8.01012C34.015 8.13765 34.4573 7.93033 34.6367 7.54115C34.985 6.91724 35.1897 6.19525 35.2297 5.4367C35.3524 3.10243 33.8851 0.719836 31.6331 0.0375887C31.2121 -0.0900013 30.7697 0.117325 30.5904 0.506507ZM31.7707 2.66931C31.7828 2.44199 31.8172 2.2216 31.8724 2.01192C33.146 2.8102 33.8161 4.51038 33.4355 5.95528C32.351 5.27562 31.7033 3.93671 31.7707 2.66931ZM36.9014 6.62824C37.2701 6.42349 37.7439 6.50998 38.0131 6.85087C39.4725 8.70006 39.308 11.4817 37.8644 13.3156C37.3917 13.9162 36.8039 14.39 36.1552 14.6981C35.7865 14.9029 35.3126 14.8164 35.0435 14.4755C33.0987 12.0115 34.064 7.97603 36.9014 6.62824ZM36.6069 9.08954C35.8061 10.0877 35.5617 11.5419 36.0603 12.7153C37.2246 11.7529 37.6621 9.98799 37.077 8.61102C36.908 8.75079 36.7501 8.91108 36.6069 9.08954ZM39.0859 14.7278C39.498 14.7139 39.8749 14.9927 39.9687 15.4083C40.4885 17.7109 39.1322 20.1703 37.0342 21.2115C36.3399 21.5561 35.5921 21.7325 34.8595 21.7282C34.4475 21.7421 34.0706 21.4633 33.9768 21.0477C33.2833 17.9756 35.9051 14.7094 39.0859 14.7278ZM37.6823 16.8162C36.5423 17.3877 35.7058 18.6004 35.6404 19.8778C37.0854 19.4899 38.2272 18.0799 38.3041 16.5782C38.095 16.6344 37.8864 16.714 37.6823 16.8162ZM34.4855 23.9821C34.7152 23.9809 34.9401 24.0031 35.1561 24.0476C34.4235 25.371 32.7547 26.1518 31.2816 25.8482C31.906 24.7205 33.2088 23.9891 34.4855 23.9821Z" fill="#2ED2A1"/>
<path fill-rule="evenodd" clip-rule="evenodd" d="M23.4764 3.3719L17.9894 8.18937C17.5533 8.50485 16.9399 8.44455 16.5766 8.03455L16.2114 7.62259C15.8256 7.18712 15.8678 6.52243 16.3059 6.1378L21.6414 1.45327C22.0794 1.0687 22.7473 1.10988 23.1332 1.54532L23.4984 1.95734C23.8617 2.36729 23.8453 2.98058 23.4764 3.3719Z" fill="#2ED2A1"/>
<path fill-rule="evenodd" clip-rule="evenodd" d="M9.32304 20.8114L9.31272 20.7186L9.30654 20.6304C9.30103 20.5704 9.30099 20.5162 9.29967 20.4607C9.29452 20.2389 9.31519 20.0462 9.34976 19.8693C9.42096 19.5176 9.55621 19.2384 9.74142 19.016C9.78741 18.96 9.83806 18.9093 9.88825 18.858L10.0385 18.704C10.1382 18.6006 10.2406 18.5004 10.342 18.3993C10.4432 18.2976 10.5461 18.198 10.6492 18.0986C10.7518 17.9986 10.855 17.8994 10.9595 17.8015C11.1668 17.604 11.3772 17.4102 11.5883 17.2167L11.9064 16.9284L12.227 16.6429C12.4417 16.4537 12.6567 16.265 12.8738 16.0785C13.0904 15.8915 13.3082 15.7057 13.5278 15.5221L14.1872 14.972L14.8526 14.4285L15.523 13.8908L16.198 13.3582L16.8774 12.8305L17.5612 12.3079C17.7902 12.1349 18.0189 11.9616 18.2501 11.7909C18.4804 11.6197 18.7106 11.4477 18.9432 11.2789L19.2294 11.6029L20.2984 10.8767L18.6856 9.05161L24.1763 4.21686L28.1426 8.70518L22.6519 13.5399L21.0391 11.7148L20.1838 12.683L20.4701 13.007C20.2732 13.2164 20.0736 13.4226 19.8746 13.6295C19.6762 13.8371 19.4754 14.042 19.2749 14.2473L18.6701 14.8593L18.0608 15.4663L17.4472 16.0684L16.829 16.6653L16.2059 17.2565L15.5768 17.8409C15.3668 18.0355 15.1551 18.228 14.942 18.4192C14.7296 18.611 14.5152 18.8003 14.3003 18.9895L13.9766 19.2712L13.6504 19.5502C13.4317 19.7351 13.2128 19.9193 12.9906 20.1001C12.8803 20.1913 12.7689 20.2812 12.6567 20.3704C12.5449 20.46 12.433 20.5495 12.3194 20.637C12.2061 20.7249 12.0937 20.8137 11.9787 20.8994L11.8068 21.0291C11.7495 21.0723 11.6927 21.1162 11.6314 21.1548C11.3871 21.3104 11.0928 21.4095 10.7344 21.4361C10.5543 21.4483 10.3601 21.4447 10.1402 21.412C10.0852 21.4038 10.0314 21.3969 9.9723 21.384L9.88551 21.3669L9.79452 21.345C9.67317 21.3157 9.54186 21.275 9.39771 21.2201C9.36106 21.0704 9.33707 20.9353 9.32304 20.8114Z" fill="#2ED2A1"/>
<path fill-rule="evenodd" clip-rule="evenodd" d="M30.5435 11.5646L25.208 16.249C24.7699 16.6336 24.102 16.5924 23.7162 16.157L23.351 15.7449C22.9876 15.3349 23.0041 14.7217 23.373 14.3304L28.8599 9.5129C29.296 9.19747 29.9094 9.25772 30.2728 9.66776L30.6379 10.0798C31.0239 10.5152 30.9816 11.18 30.5435 11.5646Z" fill="#2ED2A1"/>
</svg>

<svg width="41" height="28" fill="none" xmlns="http://www.w3.org/2000/svg"><path opacity=".4" fill-rule="evenodd" clip-rule="evenodd" d="M10.025 24.196a4.79 4.79 0 011.051 2.006.866.866 0 01-.453.974l.001.003c-2.098 1.062-4.818.38-6.359-1.395a4.79 4.79 0 01-1.051-2.005.866.866 0 01.453-.975c2.109-1.09 4.843-.353 6.358 1.392zm10.155-7.215c.002 1.349.003 3.009 0 0zM9.774.507c1.136 2.035.591 4.727-1.064 6.337A4.8 4.8 0 016.77 8.01a.87.87 0 01-1.043-.469 4.842 4.842 0 01-.593-2.104C5.012 3.102 6.48.72 8.731.037a.87.87 0 011.043.47zm-1.18 2.162a3.261 3.261 0 00-.102-.657C7.218 2.81 6.548 4.51 6.929 5.955c1.084-.68 1.732-2.018 1.664-3.286zM3.462 6.63a.877.877 0 00-1.112.222C.89 8.7 1.056 11.48 2.5 13.316c.472.6 1.06 1.074 1.709 1.382a.877.877 0 001.112-.223c1.944-2.463.98-6.499-1.858-7.847zm.294 2.46c.801.999 1.045 2.453.547 3.626-1.165-.962-1.602-2.727-1.017-4.104.17.14.327.3.47.479zm-2.479 5.639a.875.875 0 00-.883.68c-.52 2.303.837 4.762 2.935 5.804a4.846 4.846 0 002.175.516.875.875 0 00.882-.68c.694-3.072-1.928-6.339-5.109-6.32zm1.404 2.088c1.14.572 1.976 1.784 2.042 3.062-1.445-.388-2.587-1.798-2.664-3.3.21.056.418.136.622.238zm3.197 7.166a3.24 3.24 0 00-.671.066c.733 1.323 2.401 2.104 3.874 1.8-.624-1.127-1.927-1.859-3.203-1.866z" fill="#2ED2A1"/><path opacity=".4" fill-rule="evenodd" clip-rule="evenodd" d="M30.339 24.196a4.79 4.79 0 00-1.051 2.006.866.866 0 00.453.974l-.001.003c2.098 1.062 4.818.38 6.359-1.395a4.79 4.79 0 001.051-2.005.866.866 0 00-.453-.975c-2.109-1.09-4.843-.353-6.358 1.392zm-10.155-7.215c-.002 1.349-.003 3.009 0 0zM30.59.507C29.454 2.542 30 5.234 31.654 6.844a4.8 4.8 0 001.94 1.166.87.87 0 001.043-.469 4.843 4.843 0 00.593-2.104c.122-2.335-1.345-4.717-3.597-5.4a.87.87 0 00-1.043.47zm1.18 2.162c.013-.227.047-.447.102-.657 1.274.798 1.944 2.498 1.563 3.943-1.084-.68-1.732-2.018-1.664-3.286zm5.131 3.96a.877.877 0 011.112.222c1.46 1.85 1.295 4.63-.149 6.465a4.827 4.827 0 01-1.709 1.382.877.877 0 01-1.111-.223c-1.945-2.463-.98-6.499 1.857-7.847zm-.294 2.46c-.8.999-1.045 2.453-.547 3.626 1.165-.962 1.602-2.727 1.017-4.104-.169.14-.327.3-.47.479zm2.479 5.639a.875.875 0 01.883.68c.52 2.303-.837 4.762-2.935 5.804a4.846 4.846 0 01-2.175.516.875.875 0 01-.882-.68c-.694-3.072 1.928-6.339 5.109-6.32zm-1.404 2.088c-1.14.572-1.976 1.784-2.042 3.062 1.445-.388 2.587-1.798 2.664-3.3a3.31 3.31 0 00-.622.238zm-3.197 7.166c.23-.001.455.021.671.066-.733 1.323-2.401 2.104-3.874 1.8.624-1.127 1.927-1.859 3.204-1.866z" fill="#2ED2A1"/><path fill-rule="evenodd" clip-rule="evenodd" d="M23.476 3.372L17.99 8.189a1.06 1.06 0 01-1.412-.154l-.366-.412a1.049 1.049 0 01.095-1.485l5.335-4.685a1.06 1.06 0 011.492.092l.365.412c.364.41.347 1.024-.022 1.415zM9.323 20.811l-.01-.092-.006-.089c-.006-.06-.006-.114-.007-.17a2.708 2.708 0 01.05-.59c.071-.352.206-.632.391-.854.046-.056.097-.107.147-.158l.15-.154c.1-.103.203-.204.304-.305.101-.101.204-.201.307-.3.103-.1.206-.2.31-.297.208-.198.418-.392.63-.585l.317-.289.321-.285a68 68 0 011.3-1.12l.66-.551.666-.543.67-.538.675-.533.68-.527.683-.523c.23-.173.458-.346.69-.517.23-.171.46-.343.692-.512l.286.324 1.07-.726-1.613-1.825 5.49-4.835 3.967 4.488-5.491 4.835-1.613-1.825-.855.968.286.324c-.197.21-.396.416-.595.623-.199.207-.4.412-.6.617l-.605.612-.61.607-.613.602-.618.597-.623.591-.63.585A68.165 68.165 0 0114.3 18.99l-.322.281-.327.28a45.621 45.621 0 01-1.33 1.086c-.114.088-.226.177-.341.262l-.172.13c-.058.043-.114.087-.176.126a1.897 1.897 0 01-.897.281c-.18.012-.374.009-.594-.024-.055-.008-.109-.015-.168-.028l-.086-.017-.091-.022a3.277 3.277 0 01-.397-.125 3.26 3.26 0 01-.075-.409zM30.544 11.565l-5.336 4.684a1.06 1.06 0 01-1.492-.092l-.365-.412a1.048 1.048 0 01.022-1.415l5.487-4.817a1.06 1.06 0 011.413.155l.365.412c.386.435.344 1.1-.095 1.485z" fill="#2ED2A1"/></svg>
